clients/portal/components/icon/svgs/cloud_upload.svg

<svg xmlns="http://www.w3.org/2000/svg" height="24" viewBox="0 0 24 24" width="24"><path d="M0 0h24v24H0V0z" fill="currentColor"/><path d="M19.35 10.04C18.67 6.59 15.64 4 12 4 9.11 4 6.6 5.64 5.35 8.04 2.34 8.36 0 10.91 0 14c0 3.31 2.69 6 6 6h13c2.76 0 5-2.24 5-5 0-2.64-2.05-4.78-4.65-4.96zM19 18H6c-2.21 0-4-1.79-4-4 0-2.05 1.53-3.76 3.56-3.97l1.07-.11.5-.95C8.08 7.14 9.94 6 12 6c2.62 0 4.88 1.86 5.39 4.43l.3 1.5 1.53.11c1.56.1 2.78 1.41 2.78 2.96 0 1.65-1.35 3-3 3zM8 13h2.55v3h2.9v-3H16l-4-4z"/></svg>

<svg width="24" height="24" viewBox="0 0 24 24" fill="none" xmlns="http://www.w3.org/2000/svg">
<path d="M19.35 10.04C18.67 6.59 15.64 4 12 4C9.11 4 6.6 5.64 5.35 8.04C2.34 8.36 0 10.91 0 14C0 17.31 2.69 20 6 20H19C21.76 20 24 17.76 24 15C24 12.36 21.95 10.22 19.35 10.04ZM19 18H6C3.79 18 2 16.21 2 14C2 11.95 3.53 10.24 5.56 10.03L6.63 9.92L7.13 8.97C8.08 7.14 9.94 6 12 6C14.62 6 16.88 7.86 17.39 10.43L17.69 11.93L19.22 12.04C20.78 12.14 22 13.45 22 15C22 16.65 20.65 18 19 18ZM8 13H10.55V16H13.45V13H16L12 9L8 13Z" fill="#475569"/>
</svg>
